images_sukapura_svg/cmd/lc_insertcolumnsafter.svg

<svg viewBox="0 0 24 24" xmlns="http://www.w3.org/2000/svg" xmlns:xlink="http://www.w3.org/1999/xlink"><linearGradient id="a" gradientUnits="userSpaceOnUse" x1="6.998046" x2="1.998046" y1="10.5" y2="10.5"><stop offset="0" stop-color="#007018"/><stop offset="1" stop-color="#32d74b"/></linearGradient><g transform="matrix(-1 0 0 1 25 0)"><path d="m10 5v11h5v-11zm5 0v11h1.5 4.5v-2.75-5.5-2.75z" fill="#fff" stroke-width="1.436141"/><path d="m15 5v4 .5 3.5 3h1v-3h5v-1h-5v-2.5-.5h5v-1h-5v-3zm-5 3v1h5v-1zm0 4v1h5v-1z" fill="#bababa"/><path d="m9 4v4 8c0 .554.4469788.967082 1 1h5v-1h-5v-.5-2.5-1-3-1-3h5v-1zm6 0v1h6v3 1 1 2 1 1 1.5.5h-6v1h6c.554 0 1-.446 1-1v-2-1-1-2-2-4z" fill="#69696e"/><g transform="translate(-6)"><path d="m9-14h11v4h-11z" fill="#32d74b" transform="rotate(90)"/><g transform="matrix(0 1 -1 0 22.5 .001954)"><path d="m4.484375 8.0039062c-.1262712.00376-.2463783.055437-.3359375.1445313l-2 2.0000005c-.1940774.194198-.1940774.508926 0 .703124l2 2c.3132265.3143.8500495.092167.8496094-.351562l-.00195-1h2.0019491v-2h-2.0019531l.00195-1c-.0005466-.2806903-.2331285-.5053132-.5136679-.4960938z" fill="url(#a)"/><path d="m15 4v1.5859375c.31042-.2850102.514083-.6842062.5-1.1308594-.004862-.1567635-.039865-.3093554-.091797-.4550781z" fill="#fff" fill-opacity=".784314" transform="matrix(0 -1 1 0 -.001954 22.5)"/></g><path d="m9 8v5 8h1 4 1v-9-4h-1-4zm1 1h4v3h-4zm0 4h4v3h-4zm0 4h4v3h-4z" fill="#007018"/></g></g></svg>

<?xml version="1.0" encoding="UTF-8" standalone="no"?>
<svg
   xmlns:dc="http://purl.org/dc/elements/1.1/"
   xmlns:cc="http://creativecommons.org/ns#"
   xmlns:rdf="http://www.w3.org/1999/02/22-rdf-syntax-ns#"
   xmlns:svg="http://www.w3.org/2000/svg"
   xmlns="http://www.w3.org/2000/svg"
   xmlns:xlink="http://www.w3.org/1999/xlink"
   xmlns:sodipodi="http://sodipodi.sourceforge.net/DTD/sodipodi-0.dtd"
   xmlns:inkscape="http://www.inkscape.org/namespaces/inkscape"
   viewBox="0 0 24 24"
   version="1.1"
   id="svg12"
   sodipodi:docname="lc__insertcolumnsafter..svg"
   inkscape:export-filename="/home/rizmut/Dokumen/Rizmut/Github/libreoffice-style-sukapura/images_sukapura/cmd/lc__insertcolumnsafter..png"
   inkscape:export-xdpi="96"
   inkscape:export-ydpi="96"
   inkscape:version="0.92.3 (unknown)">
  <metadata
     id="metadata18">
    <rdf:RDF>
      <cc:Work
         rdf:about="">
        <dc:format>image/svg+xml</dc:format>
        <dc:type
           rdf:resource="http://purl.org/dc/dcmitype/StillImage" />
        <dc:title></dc:title>
      </cc:Work>
    </rdf:RDF>
  </metadata>
  <defs
     id="defs16">
    <linearGradient
       inkscape:collect="always"
       id="linearGradient1719">
      <stop
         style="stop-color:#007018;stop-opacity:1;"
         offset="0"
         id="stop1715" />
      <stop
         style="stop-color:#32d74b;stop-opacity:1"
         offset="1"
         id="stop1717" />
    </linearGradient>
    <linearGradient
       inkscape:collect="always"
       xlink:href="#linearGradient1719"
       id="linearGradient1721"
       x1="6.9980459"
       y1="10.5"
       x2="1.998046"
       y2="10.5"
       gradientUnits="userSpaceOnUse" />
  </defs>
  <sodipodi:namedview
     pagecolor="#ffffff"
     bordercolor="#666666"
     borderopacity="1"
     objecttolerance="10"
     gridtolerance="10"
     guidetolerance="10"
     inkscape:pageopacity="0"
     inkscape:pageshadow="2"
     inkscape:window-width="1366"
     inkscape:window-height="699"
     id="namedview14"
     showgrid="true"
     inkscape:zoom="16"
     inkscape:cx="14.626137"
     inkscape:cy="10.100154"
     inkscape:window-x="0"
     inkscape:window-y="0"
     inkscape:window-maximized="1"
     inkscape:current-layer="svg12"
     inkscape:pagecheckerboard="false">
    <inkscape:grid
       type="xygrid"
       id="grid828"
       spacingx="0.5"
       spacingy="0.5"
       empspacing="2" />
  </sodipodi:namedview>
  <g
     id="g1561"
     transform="matrix(-1,0,0,1,25,0)">
    <path
       sodipodi:nodetypes="ccccccccccccc"
       inkscape:connector-curvature="0"
       id="path2"
       d="m 10,5 v 11 h 5 V 5 Z m 5,0 V 16 H 16.5 21 V 13.25 7.75 5 Z"
       style="fill:#ffffff;fill-opacity:1;stroke-width:1.43614066" />
    <path
       sodipodi:nodetypes="ccccccccccccccccccccccccccc"
       inkscape:connector-curvature="0"
       id="path4"
       d="m 15,5 v 4 0.5 3.5 3 h 1 v -3 h 5 V 12 H 16 V 9.5 9 h 5 V 8 H 16 V 5 Z m -5,3 v 1 h 5 V 8 Z m 0,4 v 1 h 5 v -1 z"
       style="fill:#bababa;fill-opacity:1" />
    <path
       sodipodi:nodetypes="ccsscccccccccccccccccccccccccssccccccc"
       inkscape:connector-curvature="0"
       id="path1653"
       d="m 9,4 v 4 8 c 0,0.554 0.4469788,0.967082 1,1 h 5 V 16 H 10 V 15.5 13 12 9 8 5 h 5 V 4 Z m 6,0 v 1 h 6 v 3 1 1 2 1 1 1.5 0.5 h -6 v 1 h 6 c 0.554,0 1,-0.446 1,-1 V 14 13 12 10 8 4 Z"
       style="fill:#69696e;fill-opacity:1" />
    <g
       transform="translate(-6)"
       id="g1520">
      <rect
         style="opacity:1;fill:#32d74b;fill-opacity:1;stroke:none;stroke-width:2.27563429;stroke-linecap:round;stroke-linejoin:round;stroke-miterlimit:4;stroke-dasharray:none;stroke-opacity:1"
         id="rect1686"
         width="11"
         height="4"
         x="9"
         y="-14"
         transform="rotate(90)" />
      <g
         id="g1732"
         transform="rotate(90,11.249023,11.250977)">
        <path
           sodipodi:nodetypes="cccccccccccc"
           inkscape:connector-curvature="0"
           id="path1707"
           d="m 4.484375,8.0039062 c -0.1262712,0.00376 -0.2463783,0.055437 -0.3359375,0.1445313 l -2,2.0000005 c -0.1940774,0.194198 -0.1940774,0.508926 0,0.703124 l 2,2 C 4.461664,13.165862 4.998487,12.943729 4.9980469,12.5 l -0.00195,-1 H 6.998046 v -2 H 4.9960929 l 0.00195,-1 C 4.9974963,8.2193097 4.7649144,7.9946868 4.484375,8.0039062 Z"
           style="fill:url(#linearGradient1721);fill-opacity:1;stroke:none;stroke-width:1px;stroke-linecap:butt;stroke-linejoin:miter;stroke-opacity:1" />
        <path
           sodipodi:nodetypes="ccccc"
           inkscape:connector-curvature="0"
           style="fill:#ffffff;fill-opacity:0.78431373;stroke:none;stroke-width:1px;stroke-linecap:butt;stroke-linejoin:miter;stroke-opacity:1"
           d="M 15,4 V 5.5859375 C 15.31042,5.3009273 15.514083,4.9017313 15.5,4.4550781 15.495138,4.2983146 15.460135,4.1457227 15.408203,4 Z"
           transform="rotate(-90,11.249023,11.250977)"
           id="path1723" />
      </g>
      <path
         style="opacity:1;fill:#007018;fill-opacity:1;stroke:none;stroke-width:0.70710677;stroke-linecap:round;stroke-linejoin:round;stroke-miterlimit:4;stroke-dasharray:none;stroke-opacity:0"
         d="m 9,8 v 5 8 h 1 4 1 V 12 8 h -1 -4 z m 1,1 h 4 v 3 h -4 z m 0,4 h 4 v 3 h -4 z m 0,4 h 4 v 3 h -4 z"
         id="rect860"
         inkscape:connector-curvature="0"
         sodipodi:nodetypes="cccccccccccccccccccccccccc" />
    </g>
  </g>
</svg>
